X:7
T:Tralala Valsen
R:vals
C:Ola Backstrom
Z: 1998 Brian Wilson <baab@ma.ultranet.com> http://ma.ultranet.com/~baab
M:3/4
L:1/8
K:Emix
% part A
|: "E"B3 "E"A2F | "D"D2 "E"E4 | "E"B3 "E"A2F | "D"GA "E"BG AB
   | "Am"=cAA "Am"cBA | "E"BGG "E"BAG
   | "D"AFD "D"EFA | "Bm"D2 "E"E4
  |"E"B3 "E"A2F | "D"D2 "E"E4 | "E"B3 "E"A2F | "D"GA "E"BG AB
   | "Am"=cB cd "C"e2 | "Bm"ed "D"fd "E"e2
   | "Bm"de d=c"Am"BA | "F"AG BG "E"E2 :|
% part B
|: "A"a2gaba | "E"g2fgag | "D"f2dfaf | "E"g2efge
   | "A"a2gaba | "E"g2fgag | "D"f2dfaf | "Bm"g2"E"e4 :|
